X: 1681
T: The Lyrebird Schottische
C:Robert Petrick, 1864
B: australian traditional tunes wiki
M:4/4d
R: Schottische
Q: 1/4=100
K:C
V:1 
"C"C>E G>c e>d c>B|"G7"B>A G>F F2 z2|"F"A,>C F>A a>g g>f|"C"f>e e>d e2 z2|
"C"C>E G>c e>d d>c|"G7"B>d g>b g2 z2|B,>D G>c e>d c>B|"C"c2"F"c2"C"c2z2|
"C"e2d2c>B c2|"F"a2 g2f2z2|"G7"f2 d2 B>G A>B|"C"c>B c>d e2 z2|
"G7"g>^f g2 A2 B2|"F"A>c f>a "C"g2 z2|"G"B>d g>b "D7"b>a g>^f|"G"g2a2"G7"g2f2|
"C"e2c2e2c2|a>g g>^fg2 z2|"G7"f2d2f2d2|b>a g>^fg2 =f2|
"C"e2c2e2c2|"G7"f>e d>cB2 z2|B,>D G>B c>B A>B|"C"c2"F"c2"C"c2z2|]
% abcbook-tune_id 6342d53a694b6dfb9a05ed8b


% abcbook-boost 0
% abcbook-tablature 
% abcbook-transpose 
% abcbook-lastupdated 1665324377666
% abcbook-soundfonts 
% abcbook-repeats 1
% NFF Book 2015

